gui/images/group.svg

<?xml version="1.0" encoding="UTF-8" standalone="no"?>
<svg
   xmlns:ooo="http://xml.openoffice.org/svg/export"
   xmlns:dc="http://purl.org/dc/elements/1.1/"
   xmlns:cc="http://creativecommons.org/ns#"
   xmlns:rdf="http://www.w3.org/1999/02/22-rdf-syntax-ns#"
   xmlns:svg="http://www.w3.org/2000/svg"
   xmlns="http://www.w3.org/2000/svg"
   style="fill-rule:evenodd;stroke-width:28.22200012;stroke-linejoin:round"
   id="svg74"
   xml:space="preserve"
   preserveAspectRatio="xMidYMid"
   viewBox="0 0 2540.0002 2540.0002"
   height="96"
   width="96"
   version="1.2"><metadata
   id="metadata78"><rdf:RDF><cc:Work
       rdf:about=""><dc:format>image/svg+xml</dc:format><dc:type
         rdf:resource="http://purl.org/dc/dcmitype/StillImage" /><dc:title></dc:title></cc:Work></rdf:RDF></metadata>
 <defs
   id="defs5"
   class="ClipPathGroup">
  <clipPath
   clipPathUnits="userSpaceOnUse"
   id="presentation_clip_path">
   <rect
   id="rect2"
   height="3387"
   width="3387"
   y="0"
   x="0" />
  </clipPath>
 </defs>
 <defs
   id="defs9"
   class="TextShapeIndex">
  <g
   id="g7"
   ooo:id-list="id3 id4 id5 id6"
   ooo:slide="id1" />
 </defs>
 <defs
   id="defs38"
   class="EmbeddedBulletChars">
  <g
   transform="matrix(4.8828125e-4,0,0,-4.8828125e-4,0,0)"
   id="bullet-char-template(57356)">
   <path
   id="path11"
   d="M 580,1141 1163,571 580,0 -4,571 Z" />
  </g>
  <g
   transform="matrix(4.8828125e-4,0,0,-4.8828125e-4,0,0)"
   id="bullet-char-template(57354)">
   <path
   id="path14"
   d="M 8,1128 H 1137 V 0 H 8 Z" />
  </g>
  <g
   transform="matrix(4.8828125e-4,0,0,-4.8828125e-4,0,0)"
   id="bullet-char-template(10146)">
   <path
   id="path17"
   d="M 174,0 602,739 174,1481 1456,739 Z M 1358,739 309,1346 659,739 Z" />
  </g>
  <g
   transform="matrix(4.8828125e-4,0,0,-4.8828125e-4,0,0)"
   id="bullet-char-template(10132)">
   <path
   id="path20"
   d="M 2015,739 1276,0 H 717 l 543,543 H 174 v 393 h 1086 l -543,545 h 557 z" />
  </g>
  <g
   transform="matrix(4.8828125e-4,0,0,-4.8828125e-4,0,0)"
   id="bullet-char-template(10007)">
   <path
   id="path23"
   d="m 0,-2 c -7,16 -16,29 -25,39 l 381,530 c -94,256 -141,385 -141,387 0,25 13,38 40,38 9,0 21,-2 34,-5 21,4 42,12 65,25 l 27,-13 111,-251 280,301 64,-25 24,25 c 21,-10 41,-24 62,-43 C 886,937 835,863 770,784 769,783 710,716 594,584 L 774,223 c 0,-27 -21,-55 -63,-84 l 16,-20 C 717,90 699,76 672,76 641,76 570,178 457,381 L 164,-76 c -22,-34 -53,-51 -92,-51 -42,0 -63,17 -64,51 -7,9 -10,24 -10,44 0,9 1,19 2,30 z" />
  </g>
  <g
   transform="matrix(4.8828125e-4,0,0,-4.8828125e-4,0,0)"
   id="bullet-char-template(10004)">
   <path
   id="path26"
   d="M 285,-33 C 182,-33 111,30 74,156 52,228 41,333 41,471 c 0,78 14,145 41,201 34,71 87,106 158,106 53,0 88,-31 106,-94 l 23,-176 c 8,-64 28,-97 59,-98 l 735,706 c 11,11 33,17 66,17 42,0 63,-15 63,-46 V 965 c 0,-36 -10,-64 -30,-84 L 442,47 C 390,-6 338,-33 285,-33 Z" />
  </g>
  <g
   transform="matrix(4.8828125e-4,0,0,-4.8828125e-4,0,0)"
   id="bullet-char-template(9679)">
   <path
   id="path29"
   d="M 813,0 C 632,0 489,54 383,161 276,268 223,411 223,592 c 0,181 53,324 160,431 106,107 249,161 430,161 179,0 323,-54 432,-161 108,-107 162,-251 162,-431 0,-180 -54,-324 -162,-431 C 1136,54 992,0 813,0 Z" />
  </g>
  <g
   transform="matrix(4.8828125e-4,0,0,-4.8828125e-4,0,0)"
   id="bullet-char-template(8226)">
   <path
   id="path32"
   d="m 346,457 c -73,0 -137,26 -191,78 -54,51 -81,114 -81,188 0,73 27,136 81,188 54,52 118,78 191,78 73,0 134,-26 185,-79 51,-51 77,-114 77,-187 0,-75 -25,-137 -76,-188 -50,-52 -112,-78 -186,-78 z" />
  </g>
  <g
   transform="matrix(4.8828125e-4,0,0,-4.8828125e-4,0,0)"
   id="bullet-char-template(8211)">
   <path
   id="path35"
   d="M -4,459 H 1135 V 606 H -4 Z" />
  </g>
 </defs>
 <defs
   id="defs40"
   class="TextEmbeddedBitmaps" />
 <g
   transform="matrix(0.72760422,0,0,0.80011461,33.07292,-54.189578)"
   id="g45">
  <g
   class="Master_Slide"
   id="id2">
   <g
   class="Background"
   id="bg-id2" />
   <g
   class="BackgroundObjects"
   id="bo-id2" />
  </g>
 </g>
 <g
   transform="matrix(0.72760422,0,0,0.80011461,33.07292,-54.189578)"
   id="g72"
   class="SlideGroup">
  <g
   id="g70">
   <g
   clip-path="url(#presentation_clip_path)"
   class="Slide"
   id="id1">
    <g
   id="g67"
   class="Page">
     <g
   id="g48"
   class="com.sun.star.drawing.PolyPolygonShape">
      <g
   id="id3" />
     </g>
     <g
   id="g65"
   class="Group">
      <g
   id="g53"
   class="com.sun.star.drawing.ClosedBezierShape">
       <g
   id="id4">
        <path
   style="fill:#808080;stroke:none"
   id="path50"
   d="m 1026,1940 h -77 c -42,0 -77,34 -77,77 v 872 c 0,34 -9,58 -15,68 H 500 c -6,-10 -15,-34 -15,-68 v -872 c 0,-43 -34,-77 -77,-77 h -86 c -37,0 -68,-30 -68,-68 v -727 c 0,-38 31,-68 68,-68 h 704 c 18,-56 58,-102 110,-128 -31,-16 -65,-26 -102,-26 h -21 c 66,-76 106,-176 106,-285 0,-241 -197,-438 -440,-438 -244,0 -441,197 -441,438 0,109 40,209 106,285 h -22 c -122,0 -222,100 -222,222 v 727 c 0,122 100,221 222,221 h 9 v 796 c 0,126 67,221 156,221 h 384 c 88,0 155,-95 155,-221 v -796 h 8 c 37,0 71,-9 101,-25 -51,-26 -91,-72 -109,-128 z M 679,353 C 837,353 966,481 966,638 966,796 837,924 679,924 520,924 392,796 392,638 392,481 520,353 679,353 Z" />
       </g>
      </g>
      <g
   id="g58"
   class="com.sun.star.drawing.ClosedBezierShape">
       <g
   id="id5">
        <path
   style="fill:#808080;stroke:none"
   id="path55"
   d="m 3078,923 h -22 c 66,-76 107,-176 107,-285 0,-241 -198,-438 -442,-438 -243,0 -440,197 -440,438 0,109 40,209 107,285 h -22 c -39,0 -75,11 -107,29 50,26 87,71 105,125 1,0 1,0 2,0 h 712 c 37,0 68,30 68,68 v 727 c 0,38 -31,68 -68,68 h -86 c -42,0 -77,34 -77,77 v 872 c 0,34 -9,58 -15,68 h -357 c -6,-10 -15,-34 -15,-68 v -872 c 0,-43 -34,-77 -77,-77 h -85 c -1,0 -1,0 -2,0 -18,54 -55,98 -105,125 32,18 68,28 107,28 h 8 v 796 c 0,126 67,221 156,221 h 384 c 88,0 155,-95 155,-221 v -796 h 9 c 122,0 222,-99 222,-221 v -727 c 0,-122 -100,-222 -222,-222 z m -357,0 c -158,0 -286,-127 -286,-285 0,-157 128,-285 286,-285 159,0 288,128 288,285 -1,158 -129,285 -288,285 z" />
       </g>
      </g>
      <g
   id="g63"
   class="com.sun.star.drawing.ClosedBezierShape">
       <g
   id="id6">
        <path
   style="fill:#808080;stroke:none"
   id="path60"
   d="m 2273,1872 v -727 c 0,-24 -4,-46 -11,-68 -18,-54 -56,-99 -105,-125 -32,-18 -67,-29 -106,-29 h -22 c 66,-76 107,-176 107,-285 0,-241 -198,-438 -441,-438 -243,0 -441,197 -441,438 0,109 40,209 107,285 h -22 c -37,0 -71,10 -101,26 -52,26 -91,72 -110,128 -7,21 -12,44 -12,68 v 727 c 0,24 5,47 12,68 19,56 58,102 110,128 30,16 64,25 101,25 h 8 v 796 c 0,126 67,221 156,221 h 384 c 88,0 155,-95 155,-221 v -796 h 9 c 39,0 74,-10 106,-28 49,-27 87,-71 105,-125 7,-22 11,-44 11,-68 z M 1695,353 c 158,0 287,128 287,285 0,158 -129,286 -287,286 -158,0 -287,-128 -287,-286 0,-157 129,-285 287,-285 z m 424,1519 c 0,37 -30,67 -66,68 -1,0 -2,0 -2,0 h -86 c -42,0 -77,34 -77,77 v 872 c 0,34 -9,58 -15,68 h -357 c -6,-10 -15,-34 -15,-68 v -872 c 0,-43 -34,-77 -77,-77 h -77 -8 c -38,0 -69,-30 -69,-68 v -727 c 0,-38 31,-68 69,-68 h 8 704 c 0,0 1,0 2,0 36,1 66,31 66,68 z" />
       </g>
      </g>
     </g>
    </g>
   </g>
  </g>
 </g>
</svg>

<?xml version="1.0" encoding="UTF-8"?>

<svg version="1.2" baseProfile="tiny" width="33.87mm" height="33.87mm" viewBox="0 0 3387 3387" preserveAspectRatio="xMidYMid" fill-rule="evenodd" stroke-width="28.222" stroke-linejoin="round" xmlns="http://www.w3.org/2000/svg" xmlns:ooo="http://xml.openoffice.org/svg/export" xmlns:xlink="http://www.w3.org/1999/xlink" xml:space="preserve">
 <defs class="ClipPathGroup">
  <clipPath id="presentation_clip_path" clipPathUnits="userSpaceOnUse">
   <rect x="0" y="0" width="3387" height="3387"/>
  </clipPath>
 </defs>
 <defs class="TextShapeIndex">
  <g ooo:slide="id1" ooo:id-list="id3 id4 id5 id6"/>
 </defs>
 <defs class="EmbeddedBulletChars">
  <g id="bullet-char-template(57356)" transform="scale(0.00048828125,-0.00048828125)">
   <path d="M 580,1141 L 1163,571 580,0 -4,571 580,1141 Z"/>
  </g>
  <g id="bullet-char-template(57354)" transform="scale(0.00048828125,-0.00048828125)">
   <path d="M 8,1128 L 1137,1128 1137,0 8,0 8,1128 Z"/>
  </g>
  <g id="bullet-char-template(10146)" transform="scale(0.00048828125,-0.00048828125)">
   <path d="M 174,0 L 602,739 174,1481 1456,739 174,0 Z M 1358,739 L 309,1346 659,739 1358,739 Z"/>
  </g>
  <g id="bullet-char-template(10132)" transform="scale(0.00048828125,-0.00048828125)">
   <path d="M 2015,739 L 1276,0 717,0 1260,543 174,543 174,936 1260,936 717,1481 1274,1481 2015,739 Z"/>
  </g>
  <g id="bullet-char-template(10007)" transform="scale(0.00048828125,-0.00048828125)">
   <path d="M 0,-2 C -7,14 -16,27 -25,37 L 356,567 C 262,823 215,952 215,954 215,979 228,992 255,992 264,992 276,990 289,987 310,991 331,999 354,1012 L 381,999 492,748 772,1049 836,1024 860,1049 C 881,1039 901,1025 922,1006 886,937 835,863 770,784 769,783 710,716 594,584 L 774,223 C 774,196 753,168 711,139 L 727,119 C 717,90 699,76 672,76 641,76 570,178 457,381 L 164,-76 C 142,-110 111,-127 72,-127 30,-127 9,-110 8,-76 1,-67 -2,-52 -2,-32 -2,-23 -1,-13 0,-2 Z"/>
  </g>
  <g id="bullet-char-template(10004)" transform="scale(0.00048828125,-0.00048828125)">
   <path d="M 285,-33 C 182,-33 111,30 74,156 52,228 41,333 41,471 41,549 55,616 82,672 116,743 169,778 240,778 293,778 328,747 346,684 L 369,508 C 377,444 397,411 428,410 L 1163,1116 C 1174,1127 1196,1133 1229,1133 1271,1133 1292,1118 1292,1087 L 1292,965 C 1292,929 1282,901 1262,881 L 442,47 C 390,-6 338,-33 285,-33 Z"/>
  </g>
  <g id="bullet-char-template(9679)" transform="scale(0.00048828125,-0.00048828125)">
   <path d="M 813,0 C 632,0 489,54 383,161 276,268 223,411 223,592 223,773 276,916 383,1023 489,1130 632,1184 813,1184 992,1184 1136,1130 1245,1023 1353,916 1407,772 1407,592 1407,412 1353,268 1245,161 1136,54 992,0 813,0 Z"/>
  </g>
  <g id="bullet-char-template(8226)" transform="scale(0.00048828125,-0.00048828125)">
   <path d="M 346,457 C 273,457 209,483 155,535 101,586 74,649 74,723 74,796 101,859 155,911 209,963 273,989 346,989 419,989 480,963 531,910 582,859 608,796 608,723 608,648 583,586 532,535 482,483 420,457 346,457 Z"/>
  </g>
  <g id="bullet-char-template(8211)" transform="scale(0.00048828125,-0.00048828125)">
   <path d="M -4,459 L 1135,459 1135,606 -4,606 -4,459 Z"/>
  </g>
 </defs>
 <defs class="TextEmbeddedBitmaps"/>
 <g>
  <g id="id2" class="Master_Slide">
   <g id="bg-id2" class="Background"/>
   <g id="bo-id2" class="BackgroundObjects"/>
  </g>
 </g>
 <g class="SlideGroup">
  <g>
   <g id="id1" class="Slide" clip-path="url(#presentation_clip_path)">
    <g class="Page">
     <g class="com.sun.star.drawing.PolyPolygonShape">
      <g id="id3"/>
     </g>
     <g class="Group">
      <g class="com.sun.star.drawing.ClosedBezierShape">
       <g id="id4">
        <path fill="rgb(128,128,128)" stroke="none" d="M 1026,1940 L 949,1940 C 907,1940 872,1974 872,2017 L 872,2889 C 872,2923 863,2947 857,2957 L 500,2957 C 494,2947 485,2923 485,2889 L 485,2017 C 485,1974 451,1940 408,1940 L 322,1940 C 285,1940 254,1910 254,1872 L 254,1145 C 254,1107 285,1077 322,1077 L 1026,1077 C 1044,1021 1084,975 1136,949 1105,933 1071,923 1034,923 L 1013,923 C 1079,847 1119,747 1119,638 1119,397 922,200 679,200 435,200 238,397 238,638 238,747 278,847 344,923 L 322,923 C 200,923 100,1023 100,1145 L 100,1872 C 100,1994 200,2093 322,2093 L 331,2093 331,2889 C 331,3015 398,3110 487,3110 L 871,3110 C 959,3110 1026,3015 1026,2889 L 1026,2093 1034,2093 C 1071,2093 1105,2084 1135,2068 1084,2042 1044,1996 1026,1940 Z M 679,353 C 837,353 966,481 966,638 966,796 837,924 679,924 520,924 392,796 392,638 392,481 520,353 679,353 Z"/>
       </g>
      </g>
      <g class="com.sun.star.drawing.ClosedBezierShape">
       <g id="id5">
        <path fill="rgb(128,128,128)" stroke="none" d="M 3078,923 L 3056,923 C 3122,847 3163,747 3163,638 3163,397 2965,200 2721,200 2478,200 2281,397 2281,638 2281,747 2321,847 2388,923 L 2366,923 C 2327,923 2291,934 2259,952 2309,978 2346,1023 2364,1077 2365,1077 2365,1077 2366,1077 L 3078,1077 C 3115,1077 3146,1107 3146,1145 L 3146,1872 C 3146,1910 3115,1940 3078,1940 L 2992,1940 C 2950,1940 2915,1974 2915,2017 L 2915,2889 C 2915,2923 2906,2947 2900,2957 L 2543,2957 C 2537,2947 2528,2923 2528,2889 L 2528,2017 C 2528,1974 2494,1940 2451,1940 L 2366,1940 C 2365,1940 2365,1940 2364,1940 2346,1994 2309,2038 2259,2065 2291,2083 2327,2093 2366,2093 L 2374,2093 2374,2889 C 2374,3015 2441,3110 2530,3110 L 2914,3110 C 3002,3110 3069,3015 3069,2889 L 3069,2093 3078,2093 C 3200,2093 3300,1994 3300,1872 L 3300,1145 C 3300,1023 3200,923 3078,923 Z M 2721,923 C 2563,923 2435,796 2435,638 2435,481 2563,353 2721,353 2880,353 3009,481 3009,638 3008,796 2880,923 2721,923 Z"/>
       </g>
      </g>
      <g class="com.sun.star.drawing.ClosedBezierShape">
       <g id="id6">
        <path fill="rgb(128,128,128)" stroke="none" d="M 2273,1872 L 2273,1145 C 2273,1121 2269,1099 2262,1077 2244,1023 2206,978 2157,952 2125,934 2090,923 2051,923 L 2029,923 C 2095,847 2136,747 2136,638 2136,397 1938,200 1695,200 1452,200 1254,397 1254,638 1254,747 1294,847 1361,923 L 1339,923 C 1302,923 1268,933 1238,949 1186,975 1147,1021 1128,1077 1121,1098 1116,1121 1116,1145 L 1116,1872 C 1116,1896 1121,1919 1128,1940 1147,1996 1186,2042 1238,2068 1268,2084 1302,2093 1339,2093 L 1347,2093 1347,2889 C 1347,3015 1414,3110 1503,3110 L 1887,3110 C 1975,3110 2042,3015 2042,2889 L 2042,2093 2051,2093 C 2090,2093 2125,2083 2157,2065 2206,2038 2244,1994 2262,1940 2269,1918 2273,1896 2273,1872 Z M 1695,353 C 1853,353 1982,481 1982,638 1982,796 1853,924 1695,924 1537,924 1408,796 1408,638 1408,481 1537,353 1695,353 Z M 2119,1872 C 2119,1909 2089,1939 2053,1940 2052,1940 2051,1940 2051,1940 L 1965,1940 C 1923,1940 1888,1974 1888,2017 L 1888,2889 C 1888,2923 1879,2947 1873,2957 L 1516,2957 C 1510,2947 1501,2923 1501,2889 L 1501,2017 C 1501,1974 1467,1940 1424,1940 L 1347,1940 1339,1940 C 1301,1940 1270,1910 1270,1872 L 1270,1145 C 1270,1107 1301,1077 1339,1077 L 1347,1077 2051,1077 C 2051,1077 2052,1077 2053,1077 2089,1078 2119,1108 2119,1145 L 2119,1872 Z"/>
       </g>
      </g>
     </g>
    </g>
   </g>
  </g>
 </g>
</svg>
